static/fa/svgs/solid/dice-four.svg

<svg xmlns="http://www.w3.org/2000/svg" viewBox="0 0 448 512"><!-- Font Awesome Free 5.15.2 by @fontawesome - https://fontawesome.com License - https://fontawesome.com/license/free (Icons: CC BY 4.0, Fonts: SIL OFL 1.1, Code: MIT License) --><path d="M384 32H64C28.65 32 0 60.65 0 96v320c0 35.35 28.65 64 64 64h320c35.35 0 64-28.65 64-64V96c0-35.35-28.65-64-64-64zM128 384c-17.67 0-32-14.33-32-32s14.33-32 32-32 32 14.33 32 32-14.33 32-32 32zm0-192c-17.67 0-32-14.33-32-32s14.33-32 32-32 32 14.33 32 32-14.33 32-32 32zm192 192c-17.67 0-32-14.33-32-32s14.33-32 32-32 32 14.33 32 32-14.33 32-32 32zm0-192c-17.67 0-32-14.33-32-32s14.33-32 32-32 32 14.33 32 32-14.33 32-32 32z"/></svg>

<svg xmlns="http://www.w3.org/2000/svg" viewBox="0 0 448 512"><!--! Font Awesome Free 6.1.1 by @fontawesome - https://fontawesome.com License - https://fontawesome.com/license/free (Icons: CC BY 4.0, Fonts: SIL OFL 1.1, Code: MIT License) Copyright 2022 Fonticons, Inc. --><path d="M384 32H64C28.62 32 0 60.62 0 96v320c0 35.38 28.62 64 64 64h320c35.38 0 64-28.62 64-64V96C448 60.62 419.4 32 384 32zM128 384c-17.62 0-32-14.38-32-32s14.38-32 32-32s32 14.38 32 32S145.6 384 128 384zM128 192C110.4 192 96 177.6 96 160s14.38-32 32-32s32 14.38 32 32S145.6 192 128 192zM320 384c-17.62 0-32-14.38-32-32s14.38-32 32-32s32 14.38 32 32S337.6 384 320 384zM320 192c-17.62 0-32-14.38-32-32s14.38-32 32-32s32 14.38 32 32S337.6 192 320 192z"/></svg>
